src/assets/svg/icons/fa/nuevos/classic/light/bridge-water classic light.svg

<svg xmlns="http://www.w3.org/2000/svg" viewBox="0 0 576 512"><!--! Font Awesome Pro 6.4.0 by @fontawesome - https://fontawesome.com License - https://fontawesome.com/license (Commercial License) Copyright 2023 Fonticons, Inc. --><path d="M544 96H32l0 80.1c53.3 1.9 96 45.7 96 99.5V361c-9.9-5.7-21-8.6-32-8.6V275.6C96 238.2 65.8 208 28.4 208C12.7 208 0 195.3 0 179.6V96C0 78.3 14.3 64 32 64H544c17.7 0 32 14.3 32 32v83.6c0 15.7-12.7 28.4-28.4 28.4c-37.3 0-67.6 30.2-67.6 67.6v76.9c-11 0-22.1 2.8-32 8.6V275.6c0-53.8 42.7-97.6 96-99.5V96zM192 384.5h0V272c0-53 43-96 96-96s96 43 96 96V384.5c-10.4 0-21.3-2.2-32-6.1V272c0-35.3-28.7-64-64-64s-64 28.7-64 64V378.4c-10.3 3.8-21.1 6.1-32 6.1zm0 63.5c20.9 0 41.6-9.9 58.2-21.2c9.8-6.7 18-14 25.9-21.9c6.6-6.5 17.2-6.5 23.7 0c7.9 7.9 16.2 15.2 26 21.9C342.3 438 363.1 448 384 448s41.6-9.9 58.2-21.2c9.8-6.7 18-14 25.9-21.9c6.6-6.5 17.2-6.6 23.7 0c7.9 7.9 16.2 15.2 26 21.9c12.8 8.7 28.1 16.6 44.1 19.8c7.7 1.5 14.1 7.8 14.1 15.7c0 9.8-8 17.9-17.7 16.2c-23.1-4-43.6-15-58.5-25.2c-7.9-5.4-14.7-10.8-19.8-15.3c-5.1 4.5-11.8 9.9-19.8 15.3C441.5 465.9 414.3 480 384 480s-57.6-14.1-76.2-26.8c-7.9-5.4-14.7-10.8-19.8-15.3c-5.1 4.5-11.8 9.9-19.8 15.3C249.5 465.9 222.3 480 192 480s-57.6-14.1-76.2-26.8c-7.9-5.4-14.6-10.8-19.8-15.3c-5.1 4.5-11.8 9.9-19.8 15.3c-14.9 10.2-35.4 21.2-58.5 25.2C8 480.1 0 472 0 462.2c0-7.9 6.4-14.1 14.1-15.7c15.9-3.1 31.3-11.1 44-19.8c9.8-6.7 18-14 25.9-21.9c6.6-6.5 17.2-6.6 23.8 0c7.9 7.9 16.2 15.2 25.9 21.9C150.3 438 171.1 448 192 448z"/></svg>

<svg xmlns="http://www.w3.org/2000/svg" viewBox="0 0 576 512"><path d="M544 96H32V176.1C85.34 177.9 128 221.8 128 275.6V361C118.1 355.3 107 352.4 96 352.5V275.6C96 238.2 65.75 208 28.44 208C12.74 208 0 195.3 0 179.6V96C0 78.33 14.33 64 32 64H544C561.7 64 576 78.33 576 96V179.6C576 195.3 563.3 208 547.6 208C510.2 208 480 238.2 480 275.6V352.5C468.1 352.5 457.9 355.3 448 361V275.6C448 221.8 490.7 177.9 544 176.1V96zM192 384.5V272C192 218.1 234.1 176 288 176C341 176 384 218.1 384 272V384.5C373.6 384.5 362.7 382.3 352 378.3V272C352 236.7 323.3 208 288 208C252.7 208 224 236.7 224 272V378.4C213.7 382.2 202.9 384.5 192 384.5V384.5zM250.1 426.8C259.9 420.1 268.2 412.8 276.1 404.9C282.6 398.4 293.3 398.4 299.8 404.9C307.8 412.8 315.1 420.1 325.8 426.8C342.3 438 363.1 447.1 383.1 447.1C404.9 447.1 425.6 438 442.2 426.8C451.9 420.1 460.2 412.8 468.1 404.9C474.6 398.4 485.3 398.4 491.8 404.9C499.8 412.8 507.1 420.1 517.8 426.8C530.6 435.5 545.9 443.4 561.9 446.6C569.6 448.1 576 454.4 576 462.2C576 472 567.1 480.1 558.3 478.4C535.2 474.5 514.7 463.4 499.8 453.2C491.8 447.8 485.1 442.4 479.1 437.1C474.8 442.4 468.1 447.8 460.2 453.2C441.5 465.9 414.3 479.1 383.1 479.1C353.7 479.1 326.4 465.9 307.8 453.2C299.8 447.8 293.1 442.4 287.1 437.1C282.8 442.4 276.1 447.8 268.2 453.2C249.5 465.9 222.3 479.1 191.1 479.1C161.7 479.1 134.4 465.9 115.8 453.2C107.8 447.8 101.1 442.4 95.96 437.1C90.82 442.4 84.12 447.8 76.19 453.2C61.25 463.4 40.81 474.5 17.69 478.4C8.016 480.1 .0003 472 .0003 462.2C.0003 454.4 6.421 448.1 14.13 446.6C30.07 443.4 45.38 435.5 58.16 426.8C67.94 420.1 76.16 412.8 84.07 404.9C90.64 398.4 101.3 398.4 107.8 404.9C115.8 412.8 124.1 420.2 133.8 426.8C150.3 438 171.1 447.1 191.1 447.1C212.9 447.1 233.6 438 250.1 426.8H250.1z"/></svg>
